!!!COM: Hugo Wolf
!!!CNT: Deutscher
!!!TXO: Deutsche 
!!!OTL: Nimmer Will Ich Dich Verlieren
!!!ODT: 1889/01/30
!!!ONM: No. 48
!!!LYR: Johann Wolfgang von Goethe
!!!ENC: Brian Bice
!!!YOR: 45 Songs on Poems of Goethe and Eichendorff, Dover Publications, 1995
!!NB: Vocal melody and text only encoded.
**kern	**silbe
*clefG2	*
*k[f#c#g#]	*
*M4/4	*
=2	=2
{4.ee	{Nim-
8f#	-mer
8fn	will
8fn	ich
8fn	dich
8cc#	ver-
=3	=3
4cc#	-lie-
4e}	-ren!}
2r	.
=4	=4
{4cc#	{Lie-
4cc#	-be
4cc#	gibt
4ee	der
=5	=5
4.ee	Lie-
8ff#	-be
2ff#}	Kraft.}
=6	=6
2r	.
{4een	{Magst
4dd	du
=7	=7
4cc#	mei-
4ee	-ne
4.dd	Ju-
8ffn	-gend
=8	=8
4ffn	zie-
4ee}	-ren}
{4dd#	{mit
4dd#	ge-
=9	=9
4dd#	-wal-
8ee	-ti-
8gg#	-ger
[2dd#	Lei-
=10	=10
(2.dd#]	|
4d#)	-den-
=11	=11
4d#}	-schaft.}
4r	.
2r	.
=16	=16
2r	.
4r	.
{[4dd	{Ach!
=17	=17
8dd]	|
8r	.
4cc#	wie
(4cc#	schmei-
[4b	|
=18	=18
4b])	|
4a	-chelt's
4g#	mei-
4f#	-nem
=19	=19
2f#	Trie-
2e}	-be,}
=20	=20
4r	.
{2gn	{wenn
4cc#	man
=21	=21
4cc#	mei-
4ee	-nen
[2ee	Dich-
=22	=22
2.ee]	|
4ggn	-ter
=23	=23
[1ggn	preist!
=24	=24
4ggn]}	|}
4r	.
2r	.
=25	=25
2r	.
{4a	{Denn
4a	das
=26	=26
[1a	Le-
=27	=27
4a]	|
4dd	-ben
4dd	ist
4dd	die
=28	=28
(2.dd	Lie-
4ff#)	|
=29	=29
4ff#}	-be,}
4r	.
{4ff#	{und
4ff#	des
=30	=30
4ff#	Le-
4ee	-bens
[2ffn	Le-
=31	=31
2ffn]	|
2dd	-ben
=32	=32
[1aa	Geist.
=33	=33
1aa]}	|}
*-	*-
